X: 32461
T: Pitlochry High School Centenary, The
R: jig
M: 6/8
K: Dmajor
d2 e fed|gBB BAB|d2e fed|gBB cde|
d2e fed|gBB BAB|AcA dAe|Aee edc:|
|:d2a agf|ggg gfe|d2a agf|ecA Ace|
d2a agf|ggg g<gf|eee efd|ecA Ace:|
|:dAe AfA|gAf AeA|dAe AfA|gBB cde|
dAe AfA|gAf AeA|eaa eee|gaa age:|
M:12/8
Ada aAd ggg Adf|[M:9/8]fAd eee cde|
M:6/8
Ada aAd|ggg g<gf|eee efd|ecA Ace:|

